assets/Non-potable water/Flat/non-potable_water_flat.svg

<svg width="32" height="32" viewBox="0 0 32 32" fill="none" xmlns="http://www.w3.org/2000/svg">
<path d="M27.875 15.9375C27.875 22.5304 22.5304 27.875 15.9375 27.875C9.3446 27.875 4 22.5304 4 15.9375C4 9.3446 9.3446 4 15.9375 4C22.5304 4 27.875 9.3446 27.875 15.9375Z" fill="white"/>
<path d="M20.6198 9.47508L22.2813 9.09375C22.8335 9.09375 23.2813 9.54147 23.2813 10.0938C23.2813 10.646 22.8335 11.0938 22.2813 11.0938L20.5574 10.6981C20.4305 10.899 20.2479 11.0612 20.0313 11.1631V12H23.4922C23.7683 12 23.9922 12.2239 23.9922 12.5V14.5C23.9922 14.7761 23.7683 15 23.4922 15H14.25C14.1119 15 14 15.1119 14 15.25V17.5234C14 17.7996 13.7761 18.0234 13.5 18.0234H11.5C11.2239 18.0234 11 17.7996 11 17.5234V15.9062C11 13.8125 12.9688 12 15 12H19.0313V11.1904C18.7757 11.087 18.5622 10.9015 18.4233 10.6667L16.5625 11.0938C16.0102 11.0938 15.5625 10.646 15.5625 10.0938C15.5625 9.54147 16.0102 9.09375 16.5625 9.09375L18.3647 9.50738C18.5629 9.07869 18.9967 8.78125 19.5 8.78125C19.9906 8.78125 20.4151 9.06382 20.6198 9.47508Z" fill="black"/>
<path d="M9.70835 19.2018C9.77954 19.1137 9.88674 19.0625 10 19.0625H14.9688C15.0811 19.0625 15.1874 19.1128 15.2587 19.1996C15.3299 19.2865 15.3585 19.4006 15.3365 19.5108L14.524 23.5889C14.4891 23.7643 14.3351 23.8906 14.1563 23.8906H10.875C10.6982 23.8906 10.5454 23.7671 10.5083 23.5943L9.63335 19.5162C9.60959 19.4054 9.63715 19.2899 9.70835 19.2018ZM10.8834 21.7672L11.1781 23.1406H13.8486L14.1129 21.814L13.7247 21.6641C13.5918 21.6128 13.4454 21.6085 13.3098 21.6517L12.8625 21.7943C12.5979 21.8787 12.3139 21.881 12.048 21.8008L11.5428 21.6486C11.4059 21.6073 11.259 21.6142 11.1266 21.6682L10.8834 21.7672ZM10.7236 21.0225L10.8436 20.9736C11.1349 20.8549 11.458 20.8397 11.7592 20.9305L12.2644 21.0827C12.3853 21.1192 12.5144 21.1181 12.6346 21.0798L13.0819 20.9372C13.3804 20.842 13.7024 20.8516 13.9947 20.9644L14.2616 21.0674L14.5117 19.8125H10.464L10.7236 21.0225Z" fill="black"/>
<path d="M16 30C23.732 30 30 23.732 30 16C30 8.26801 23.732 2 16 2C8.26801 2 2 8.26801 2 16C2 23.732 8.26801 30 16 30ZM22.6453 24.7666C20.7991 26.1682 18.4967 27 16 27C9.92487 27 5 22.0751 5 16C5 13.5033 5.8318 11.2009 7.23339 9.35471L22.6453 24.7666ZM24.7666 22.6453L9.35471 7.23339C11.2009 5.8318 13.5033 5 16 5C22.0751 5 27 9.92487 27 16C27 18.4967 26.1682 20.7991 24.7666 22.6453Z" fill="#F8312F"/>
</svg>

<svg xmlns="http://www.w3.org/2000/svg" width="32" height="32" fill="none"><path fill="#fff" d="M27.875 15.938c0 6.592-5.345 11.937-11.938 11.937C9.346 27.875 4 22.53 4 15.937 4 9.346 9.345 4 15.938 4c6.592 0 11.937 5.345 11.937 11.938Z"/><path fill="#000" d="m20.62 9.475 1.661-.381a1 1 0 0 1 0 2l-1.724-.396c-.127.201-.31.363-.526.465V12h3.461a.5.5 0 0 1 .5.5v2a.5.5 0 0 1-.5.5H14.25a.25.25 0 0 0-.25.25v2.273a.5.5 0 0 1-.5.5h-2a.5.5 0 0 1-.5-.5v-1.617C11 13.812 12.969 12 15 12h4.031v-.81a1.254 1.254 0 0 1-.608-.523l-1.86.427a1 1 0 0 1 0-2l1.802.413a1.25 1.25 0 0 1 2.255-.032ZM9.708 19.202a.375.375 0 0 1 .292-.14h4.969a.375.375 0 0 1 .367.449l-.812 4.078a.375.375 0 0 1-.368.302h-3.281a.375.375 0 0 1-.367-.297l-.875-4.078a.375.375 0 0 1 .075-.314Zm1.175 2.565.295 1.374h2.67l.265-1.327-.388-.15a.625.625 0 0 0-.415-.012l-.447.142a1.374 1.374 0 0 1-.815.007l-.505-.152a.624.624 0 0 0-.416.02l-.244.098Zm-.16-.744.12-.05c.292-.118.615-.133.916-.043l.505.153c.121.036.25.035.37-.003l.448-.143c.298-.095.62-.085.913.027l.267.103.25-1.255h-4.048l.26 1.21Z"/><path fill="#F8312F" d="M16 30c7.732 0 14-6.268 14-14S23.732 2 16 2 2 8.268 2 16s6.268 14 14 14Zm6.645-5.233A10.952 10.952 0 0 1 16 27C9.925 27 5 22.075 5 16c0-2.497.832-4.8 2.233-6.645l15.412 15.412Zm2.122-2.122L9.355 7.233A10.952 10.952 0 0 1 16 5c6.075 0 11 4.925 11 11 0 2.497-.832 4.8-2.233 6.645Z"/></svg>
